icon-themes/sifr_svg/cmd/lc_entergroup.svg

<svg viewBox="0 0 24 24" xmlns="http://www.w3.org/2000/svg"><path d="m1 2v2h2v-2zm12 0v2h2v-2zm-5 2a5 5 0 0 0 -5 5 5 5 0 0 0 5 5 5 5 0 0 0 5-5 5 5 0 0 0 -5-5zm12 2v2h2v-2zm-5.080078 4a7 7 0 0 1 -3.919922 5.316406v1.832032l.574219-.574219 4-4c.403816-.403753.926506-.574219 1.425781-.574219h1 1v-2zm2.080078 3c-.26531 0-.53058.09311-.71875.28125l-4 4-.28125.28125v.875l.28125.28125 4 4c.18818.18821.45346.28125.71875.28125h1v-1c0-.370332-.09314-.53057-.28125-.71875l-2.28125-2.28125h7.5625v-2h-7.5625l2.28125-2.28125c.18815-.18817.28125-.45345.28125-.71875v-1zm-16 1v2h2v-2zm18 0c0 .499249-.170419 1.021939-.574219 1.425781l-.574219.574219h1.148438zm-11 6v2h2v-2zm12 0v2h2v-2z" fill="#555753"/></svg>

<svg xmlns="http://www.w3.org/2000/svg" viewBox="0 0 24 24">
  <path
     style="fill:#555753"
     d="M 1,2 V 4 H 3 V 2 Z m 12,0 v 2 h 2 V 2 Z M 8,4 A 5,5 0 0 0 3,9 5,5 0 0 0 8,14 5,5 0 0 0 13,9 5,5 0 0 0 8,4 Z m 12,2 v 2 h 2 V 6 Z m -5.080078,4 A 7,7 0 0 1 11,15.316406 v 1.832032 l 0.574219,-0.574219 4,-4 C 15.978035,12.170466 16.500725,12 17,12 h 1 1 V 10 Z M 17,13 c -0.26531,0 -0.53058,0.09311 -0.71875,0.28125 l -4,4 L 12,17.5625 v 0.875 l 0.28125,0.28125 4,4 C 16.46943,22.90696 16.73471,23 17,23 h 1 v -1 c 0,-0.370332 -0.09314,-0.53057 -0.28125,-0.71875 L 15.4375,19 H 23 v -2 h -7.5625 l 2.28125,-2.28125 C 17.9069,14.53058 18,14.2653 18,14 V 13 Z M 1,14 v 2 h 2 v -2 z m 18,0 c 0,0.499249 -0.170419,1.021939 -0.574219,1.425781 L 17.851562,16 H 19 Z M 8,20 v 2 h 2 v -2 z m 12,0 v 2 h 2 v -2 z"
     />
</svg>
